src/images/global/icons/utility/recycle.svg

<?xml version="1.0" encoding="UTF-8"?>
<svg width="48px" height="48px" viewBox="0 0 48 48" version="1.1" xmlns="http://www.w3.org/2000/svg" xmlns:xlink="http://www.w3.org/1999/xlink">
    <!-- Generator: Sketch 46.2 (44496) - http://www.bohemiancoding.com/sketch -->
    <title>icon/Utility/recycle</title>
    <desc>Created with Sketch.</desc>
    <defs>
        <path d="M14.8732732,6.74633672 L15.9952771,7.06593417 L13.1968157,2.13363734 C12.945434,1.69056441 12.4769763,1.41530962 11.9743287,1.41530962 C11.4714494,1.41530962 11.0029917,1.69044647 10.7517259,2.1335194 L7.18695017,8.41638084 C7.05807214,8.64340118 6.82430685,8.7702967 6.58405131,8.7702967 C6.46606764,8.7702967 6.3464614,8.73963421 6.23693825,8.67536092 C5.90442829,8.47994654 5.79038514,8.04725168 5.98242732,7.708785 L9.54708713,1.42592356 C10.0460259,0.546381925 10.9759876,-7.10542736e-15 11.974097,-7.10542736e-15 C12.9720904,-7.10542736e-15 13.9020521,0.546381925 14.4011068,1.42592356 L17.1902963,6.34182776 L17.4913981,5.24646939 C17.5948945,4.87014633 17.9783994,4.65079162 18.3484602,4.75563374 C18.7182891,4.86094759 18.9343221,5.25142256 18.8308256,5.62774562 L18.0711174,8.39161499 C18.0213974,8.57240573 17.9032978,8.72560023 17.7424321,8.81770562 C17.6374289,8.87785127 17.519793,8.90863169 17.4014616,8.90863169 C17.3386451,8.90863169 17.2755969,8.9000226 17.2140553,8.88245064 L14.4983448,8.10916631 C14.1286317,8.00385247 13.9125988,7.61337749 14.0160952,7.23705444 C14.1198235,6.86073138 14.5034443,6.64125873 14.8732732,6.74633672 Z M23.6265488,17.711124 C24.125024,18.5907836 24.1244445,19.6834295 23.6250422,20.563207 C23.1258716,21.4419231 22.1961417,21.9875974 21.1986118,21.9875974 L21.197337,21.9875974 L15.6187261,21.9846491 L16.3998753,22.7979126 C16.6682939,23.077295 16.6631944,23.5253211 16.3885173,23.7984531 C16.2532649,23.9330143 16.077912,24 15.9025591,24 C15.7218748,24 15.5415383,23.9287687 15.4052428,23.7868957 L13.433942,21.734396 C13.305064,21.6003066 13.233787,21.4195159 13.2358732,21.2317671 C13.2380752,21.0440184 13.3134086,20.8647607 13.4453,20.7337376 L15.4622644,18.728411 C15.7368256,18.455279 16.1773521,18.4603501 16.4455389,18.7399684 C16.7139576,19.0193508 16.7088581,19.4673769 16.434181,19.7405089 L15.6007619,20.5692215 L21.1979164,20.5721699 L21.1986118,20.5721699 C21.7011434,20.5721699 22.1693694,20.2973868 22.420867,19.8546677 C22.6724805,19.4117127 22.6728282,18.8612031 22.4217942,18.4180122 L18.8602636,12.1332639 C18.6684532,11.7946793 18.7826123,11.3619844 19.115354,11.166688 C19.4480958,10.9715094 19.8733238,11.087791 20.0651341,11.4262577 L23.6265488,17.711124 Z M9.93001251,20.6836162 C10.3140969,20.6838521 10.6251658,21.000855 10.624934,21.3914479 C10.6247022,21.7820408 10.3134015,22.098572 9.92954892,22.098572 L9.92908533,22.098572 L2.79941801,22.0939727 C1.80154042,22.0932651 0.871926471,21.5464114 0.373335369,20.666516 C-0.125023938,19.7866205 -0.12444445,18.6938567 0.375073832,17.8146689 L3.16750852,12.9004157 L2.08479395,13.1821568 C1.71287883,13.2785078 1.33389396,13.050426 1.238858,12.6719802 C1.14370614,12.2932985 1.36831552,11.9078946 1.74034654,11.8110719 L4.47286221,11.1004098 C4.65157617,11.0538264 4.84095271,11.0815406 4.9997323,11.1773019 C5.158396,11.2730632 5.27313454,11.4289702 5.31879816,11.6108223 L6.01673298,14.3910843 C6.11165304,14.769766 5.88715956,15.1551699 5.51501265,15.2518746 C5.45729568,15.2668521 5.39946282,15.274046 5.34244125,15.274046 C5.0322995,15.2742818 4.74950957,15.0614134 4.66919259,14.7414622 L4.38072368,13.5925624 L1.5790172,18.5232082 C1.3274037,18.9661632 1.32705601,19.5166727 1.57820592,19.9598636 C1.82935583,20.4030545 2.29769768,20.6785451 2.8002293,20.6790168 L9.93001251,20.6836162 Z" id="path-1"></path>
    </defs>
    <g id="Symbols" stroke="none" stroke-width="1" fill="none" fill-rule="evenodd">
        <g id="icon/Utility/recycle">
            <g id="Icon" transform="translate(12.000000, 12.000000)">
                <mask id="mask-2" fill="white">
                    <use xlink:href="#path-1"></use>
                </mask>
                <use id="Mask" fill="#333333" xlink:href="#path-1"></use>
                <g id="Color/Grayscale/Night-Sky" mask="url(#mask-2)" fill="#111111">
                    <g transform="translate(-12.000000, -12.000000)" id="Swatch">
                        <rect x="0" y="0" width="48" height="48"></rect>
                    </g>
                </g>
            </g>
        </g>
    </g>
</svg>

<?xml version="1.0" encoding="utf-8"?>
<!-- Generator: Adobe Illustrator 21.0.2, SVG Export Plug-In . SVG Version: 6.00 Build 0)  -->
<svg version="1.1" id="icon_x2F_Utility_x2F_recycle-Layer_1" xmlns="http://www.w3.org/2000/svg" xmlns:xlink="http://www.w3.org/1999/xlink" x="0px" y="0px"
	 viewBox="0 0 48 48" style="enable-background:new 0 0 48 48;" xml:space="preserve">
<title>icon/Utility/recycle</title>
<desc>Created with Sketch.</desc>
<g id="icon_x2F_Utility_x2F_recycle-Symbols">
	<g id="icon_x2F_Utility_x2F_recycle">
		<g id="icon_x2F_Utility_x2F_recycle-Icon" transform="translate(12.000000, 12.000000)">
			<g id="icon_x2F_Utility_x2F_recycle-Mask">
				<path id="icon_x2F_Utility_x2F_recycle-path-1_1_" style="fill:#333333;" d="M14.9,6.7L16,7.1l-2.8-4.9c-0.3-0.4-0.7-0.7-1.2-0.7c-0.5,0-1,0.3-1.2,0.7
					L7.2,8.4C7.1,8.6,6.8,8.8,6.6,8.8c-0.1,0-0.2,0-0.3-0.1C5.9,8.5,5.8,8,6,7.7l3.6-6.3C10,0.5,11,0,12,0c1,0,1.9,0.5,2.4,1.4
					l2.8,4.9l0.3-1.1c0.1-0.4,0.5-0.6,0.9-0.5c0.4,0.1,0.6,0.5,0.5,0.9l-0.8,2.8c0,0.2-0.2,0.3-0.3,0.4c-0.1,0.1-0.2,0.1-0.3,0.1
					c-0.1,0-0.1,0-0.2,0l-2.7-0.8C14.1,8,13.9,7.6,14,7.2C14.1,6.9,14.5,6.6,14.9,6.7z M23.6,17.7c0.5,0.9,0.5,2,0,2.9
					c-0.5,0.9-1.4,1.4-2.4,1.4h0l-5.6,0l0.8,0.8c0.3,0.3,0.3,0.7,0,1c-0.1,0.1-0.3,0.2-0.5,0.2c-0.2,0-0.4-0.1-0.5-0.2l-2-2.1
					c-0.1-0.1-0.2-0.3-0.2-0.5c0-0.2,0.1-0.4,0.2-0.5l2-2c0.3-0.3,0.7-0.3,1,0c0.3,0.3,0.3,0.7,0,1l-0.8,0.8l5.6,0h0
					c0.5,0,1-0.3,1.2-0.7c0.3-0.4,0.3-1,0-1.4l-3.6-6.3c-0.2-0.3-0.1-0.8,0.3-1c0.3-0.2,0.8-0.1,0.9,0.3L23.6,17.7z M9.9,20.7
					c0.4,0,0.7,0.3,0.7,0.7c0,0.4-0.3,0.7-0.7,0.7h0l-7.1,0c-1,0-1.9-0.5-2.4-1.4c-0.5-0.9-0.5-2,0-2.9l2.8-4.9l-1.1,0.3
					c-0.4,0.1-0.8-0.1-0.8-0.5c-0.1-0.4,0.1-0.8,0.5-0.9l2.7-0.7c0.2,0,0.4,0,0.5,0.1c0.2,0.1,0.3,0.3,0.3,0.4L6,14.4
					c0.1,0.4-0.1,0.8-0.5,0.9c-0.1,0-0.1,0-0.2,0c-0.3,0-0.6-0.2-0.7-0.5l-0.3-1.1l-2.8,4.9c-0.3,0.4-0.3,1,0,1.4s0.7,0.7,1.2,0.7
					L9.9,20.7z"/>
			</g>
			<defs>
				<filter id="icon_x2F_Utility_x2F_recycle-Adobe_OpacityMaskFilter" filterUnits="userSpaceOnUse" x="-12" y="-12" width="48" height="48">
					<feColorMatrix  type="matrix" values="1 0 0 0 0  0 1 0 0 0  0 0 1 0 0  0 0 0 1 0"/>
				</filter>
			</defs>
			<mask maskUnits="userSpaceOnUse" x="-12" y="-12" width="48" height="48" id="icon_x2F_Utility_x2F_recycle-mask-2">
				<g style="filter:url(#icon_x2F_Utility_x2F_recycle-Adobe_OpacityMaskFilter);">
					<path id="icon_x2F_Utility_x2F_recycle-path-1" style="fill:#FFFFFF;" d="M14.9,6.7L16,7.1l-2.8-4.9c-0.3-0.4-0.7-0.7-1.2-0.7c-0.5,0-1,0.3-1.2,0.7L7.2,8.4
						C7.1,8.6,6.8,8.8,6.6,8.8c-0.1,0-0.2,0-0.3-0.1C5.9,8.5,5.8,8,6,7.7l3.6-6.3C10,0.5,11,0,12,0c1,0,1.9,0.5,2.4,1.4l2.8,4.9
						l0.3-1.1c0.1-0.4,0.5-0.6,0.9-0.5c0.4,0.1,0.6,0.5,0.5,0.9l-0.8,2.8c0,0.2-0.2,0.3-0.3,0.4c-0.1,0.1-0.2,0.1-0.3,0.1
						c-0.1,0-0.1,0-0.2,0l-2.7-0.8C14.1,8,13.9,7.6,14,7.2C14.1,6.9,14.5,6.6,14.9,6.7z M23.6,17.7c0.5,0.9,0.5,2,0,2.9
						c-0.5,0.9-1.4,1.4-2.4,1.4h0l-5.6,0l0.8,0.8c0.3,0.3,0.3,0.7,0,1c-0.1,0.1-0.3,0.2-0.5,0.2c-0.2,0-0.4-0.1-0.5-0.2l-2-2.1
						c-0.1-0.1-0.2-0.3-0.2-0.5c0-0.2,0.1-0.4,0.2-0.5l2-2c0.3-0.3,0.7-0.3,1,0c0.3,0.3,0.3,0.7,0,1l-0.8,0.8l5.6,0h0
						c0.5,0,1-0.3,1.2-0.7c0.3-0.4,0.3-1,0-1.4l-3.6-6.3c-0.2-0.3-0.1-0.8,0.3-1c0.3-0.2,0.8-0.1,0.9,0.3L23.6,17.7z M9.9,20.7
						c0.4,0,0.7,0.3,0.7,0.7c0,0.4-0.3,0.7-0.7,0.7h0l-7.1,0c-1,0-1.9-0.5-2.4-1.4c-0.5-0.9-0.5-2,0-2.9l2.8-4.9l-1.1,0.3
						c-0.4,0.1-0.8-0.1-0.8-0.5c-0.1-0.4,0.1-0.8,0.5-0.9l2.7-0.7c0.2,0,0.4,0,0.5,0.1c0.2,0.1,0.3,0.3,0.3,0.4L6,14.4
						c0.1,0.4-0.1,0.8-0.5,0.9c-0.1,0-0.1,0-0.2,0c-0.3,0-0.6-0.2-0.7-0.5l-0.3-1.1l-2.8,4.9c-0.3,0.4-0.3,1,0,1.4s0.7,0.7,1.2,0.7
						L9.9,20.7z"/>
				</g>
			</mask>
			<g id="icon_x2F_Utility_x2F_recycle-Color_x2F_Grayscale_x2F_Night-Sky" style="mask:url(#icon_x2F_Utility_x2F_recycle-mask-2);">
				<g id="icon_x2F_Utility_x2F_recycle-Swatch" transform="translate(-12.000000, -12.000000)">
					<rect style="fill:#111111;" width="48" height="48"/>
				</g>
			</g>
		</g>
	</g>
</g>
</svg>
